icons/svgs/street-view-solid.svg

<svg width="24" height="24" viewBox="0 0 24 24" fill="none" xmlns="http://www.w3.org/2000/svg">
<path d="M14.5 4.5C14.5 5.39844 13.9922 6.21875 13.25 6.6875C12.4688 7.11719 11.4922 7.11719 10.75 6.6875C9.96875 6.21875 9.5 5.39844 9.5 4.5C9.5 3.64062 9.96875 2.82031 10.75 2.35156C11.4922 1.92188 12.4688 1.92188 13.25 2.35156C13.9922 2.82031 14.5 3.64062 14.5 4.5ZM10.75 8.25H13.25C14.6172 8.25 15.75 9.38281 15.75 10.75V12.625C15.75 13.3281 15.1641 13.875 14.5 13.875H14.4219L13.9922 17.7812C13.9141 18.4062 13.3672 18.875 12.7422 18.875H11.2188C10.5938 18.875 10.0469 18.4062 9.96875 17.7812L9.53906 13.875H9.5C8.79688 13.875 8.25 13.3281 8.25 12.625V10.75C8.25 9.38281 9.34375 8.25 10.75 8.25ZM7.15625 17.4297C5.98438 17.625 5.04688 17.8984 4.46094 18.2109C4.34375 18.2891 4.22656 18.3281 4.14844 18.4062C3.99219 18.4844 3.99219 18.6797 4.14844 18.7578C4.5 18.9922 5.04688 19.2266 5.82812 19.4609C7.35156 19.8516 9.53906 20.125 12 20.125C14.4219 20.125 16.6094 19.8516 18.1328 19.4609C18.9141 19.2266 19.4609 18.9922 19.8125 18.7578C19.9688 18.6797 19.9688 18.4844 19.8125 18.4062C19.7344 18.3281 19.6172 18.2891 19.5 18.2109C18.9141 17.8984 17.9766 17.625 16.8047 17.4297C16.2969 17.3125 15.9453 16.8438 16.0625 16.3359C16.1406 15.8281 16.6484 15.4766 17.1562 15.5547C18.4062 15.7891 19.5391 16.1406 20.3594 16.5312C20.75 16.7656 21.1406 17 21.4141 17.3125C21.7266 17.625 21.9609 18.0547 21.9609 18.5625C21.9609 19.4219 21.375 20.0078 20.8281 20.3203C20.2812 20.7109 19.5 21.0234 18.6406 21.2578C16.8828 21.7266 14.5391 22 12 22C9.42188 22 7.07812 21.7266 5.32031 21.2578C4.46094 21.0234 3.67969 20.7109 3.13281 20.3203C2.58594 20.0078 2 19.4219 2 18.5625C2 18.0547 2.23438 17.625 2.50781 17.3125C2.82031 17 3.21094 16.7656 3.60156 16.5312C4.42188 16.1406 5.55469 15.7891 6.80469 15.5547C7.3125 15.4766 7.82031 15.8281 7.89844 16.3359C8.01562 16.8438 7.66406 17.3125 7.15625 17.4297Z" fill="black"/>
</svg>

<svg xmlns="http://www.w3.org/2000/svg" width="24" height="24" fill="currentColor" class="icon-street-view-solid" viewBox="0 0 24 24">
  <mask id="a" width="20" height="20" x="2" y="2" maskUnits="userSpaceOnUse" style="mask-type:alpha">
    <path d="M14.5 4.5c0 .898-.508 1.719-1.25 2.188-.781.43-1.758.43-2.5 0A2.54 2.54 0 0 1 9.5 4.5c0-.86.469-1.68 1.25-2.148.742-.43 1.719-.43 2.5 0 .742.468 1.25 1.289 1.25 2.148m-3.75 3.75h2.5c1.367 0 2.5 1.133 2.5 2.5v1.875c0 .703-.586 1.25-1.25 1.25h-.078l-.43 3.906a1.26 1.26 0 0 1-1.25 1.094H11.22a1.26 1.26 0 0 1-1.25-1.094l-.43-3.906H9.5c-.703 0-1.25-.547-1.25-1.25V10.75c0-1.367 1.094-2.5 2.5-2.5m-3.594 9.18c-1.172.195-2.11.468-2.695.78-.117.08-.234.118-.313.196-.156.078-.156.274 0 .352.352.234.899.469 1.68.703 1.524.39 3.711.664 6.172.664 2.422 0 4.61-.273 6.133-.664.781-.234 1.328-.469 1.68-.703.156-.078.156-.274 0-.352-.079-.078-.196-.117-.313-.195-.586-.313-1.523-.586-2.695-.781-.508-.117-.86-.586-.742-1.094.078-.508.585-.86 1.093-.781 1.25.234 2.383.586 3.203.976.391.235.782.469 1.055.782.313.312.547.742.547 1.25 0 .859-.586 1.445-1.133 1.757-.547.39-1.328.703-2.187.938-1.758.469-4.102.742-6.641.742-2.578 0-4.922-.273-6.68-.742-.86-.235-1.64-.547-2.187-.938C2.586 20.008 2 19.422 2 18.562c0-.507.234-.937.508-1.25.312-.312.703-.546 1.094-.78.82-.391 1.953-.743 3.203-.977.508-.078 1.015.273 1.093.78.118.509-.234.977-.742 1.095"/>
  </mask>
  <g mask="url(#a)">
    <path d="M0 0h24v24H0z"/>
  </g>
</svg>
